X:1
T:Title
%%score { 1 | 2 }
L:1/8
M:4/4
K:F
V:1 treble nm="Grand Piano"
V:2 bass 
V:1
 z4 z2[Q:1/4=100] F2 | A3 A BBAG | F6 F2 | [FA]3 [FA] [DB][DB][CA][^CG] |[M:3/4] F6 |[M:1/4] F2 | %6
[M:4/4] d3 d [CEA][CEA][CDA][B,DG] | [B,DG]6 [DGB]2 | [CFA]3 [A,CF] [DEB][CFA][B,EA][B,EG] | %9
[M:3/4] F6 |[M:1/4] A2 |[M:4/4] B3 A [Fd][^Fc][GB][FA] | [GB]6 [EB]2 | %13
 [EB]3 [EA] [Ec][EB][EG][E_A] |[M:3/4] A6 |[M:1/4] A2 |[M:4/4] A3 [FA] [FB][FB][Fc][Fc] | %17
 [Fd]6 [Fd]2 | [Fc]3 [FA] [EA]2 [EG]2 |[M:3/4] [A,F]6 |] %20
V:2
 z4 z2 [F,A,C]2 | [F,CF]3 [F,CF] [F,DF][F,DF][F,CF][F,B,F] | [F,A,]6 [F,A,]2 | %3
 [D,A,]3 [D,A,] [G,,G,][G,,G,][A,,E,][A,,A,] |[M:3/4] [D,A,D]6 |[M:1/4] [D,A,D]2 | %6
[M:4/4] [G,,B,D]3 [G,,B,D] A,,A,,B,,B,, | B,,6 G,,2 | C,3 C, C,C,C,C, |[M:3/4] [F,A,]6 | %10
[M:1/4] [F,CF]2 |[M:4/4] [F,DF]3 [F,CF] [D,D][D,D][D,D][D,D] | [G,D]6 [C,C]2 | %13
 [C,C]3 [C,C] [C,G,][C,C][C,C][C,C] |[M:3/4] [F,CF]6 |[M:1/4] [F,CF]2 | %16
[M:4/4] [F,CF]3 [_E,C] [D,B,][D,B,][C,A,][C,A,] | [=B,,_A,]6 [B,,A,]2 | %18
 [C,A,]3 [C,C] [C,B,]2 [C,B,]2 |[M:3/4] [F,,F,]6 |] %20

